X:1
T:Title
%%score { ( 1 3 ) | 2 }
L:1/8
M:4/4
K:Eb
V:1 treble nm="Grand Piano"
V:3 treble 
V:2 bass 
V:1
 z4 z2[Q:1/4=92] E>F | G>G G>A G>[CF] E>D | E6 E>G | [GB]>[GB] [GB]>[GB] [Ac]>[GB] [GB]>[EG] | %4
 [DF]6 [DF]>[EG] | [FA]>[FA] [GB]>[FA] G2 F>E | [DF]>[DF] [DF]>[EG] [FA]2 [EG]>[DF] | %7
 [EG]>[GB] [Ge]>[Ac] [GB]>[B,EG] [A,DF]>[B,DG] |[M:3/4] [G,B,E]6 |[M:1/4] B>c | %10
[M:4/4] [GB]4 [EG]2 z2 | [CGB]<[DFA] [DFA]>[DFA] [DFA]2 A>B | [FA]4 [DF]2 z2 | %13
 [Ac]<[GB] [GB]>[GB] [GB]2 B>c | [GB]-<[EG-B-] [EG-B-]>[EGB] B,<B, e>e | e<c c>c c2 c>c | %16
 [GB]<[GB] [GB]>[Ac] [GB]<[EG] [DF]>[DG] |[M:7/8] E-E-E- E- E3 |] %18
V:2
 z4 z2 [E,G,]>[E,A,] | [E,B,E]>[E,B,E] [E,B,E]>[E,CE] [E,B,E]>[A,,A,] [B,,G,B,]>[B,,F,B,] | %2
 [E,G,B,]6 [E,G,B,]>[E,B,E] | [E,E]>[E,E] [E,E]>[E,E] [E,E]>[E,E] [E,B,]>[E,B,] | %4
 [B,,B,]6 [B,,B,]>[B,,B,] | [B,,B,]>[B,,B,] [B,,B,]>[B,,B,] [E,B,E]2 [E,A,B,]>[E,G,B,] | %6
 [B,,B,]>[B,,B,] [B,,B,]>[B,,B,] [B,,B,]2 [B,,B,]>[B,,B,] | %7
 [E,B,]>[E,B,] [E,B,]>[E,E] [E,E]>E, B,,>B,, |[M:3/4] E,6 |[M:1/4][K:treble] G>A | %10
[M:4/4][K:bass] E,<E, E,>E, E,<E,[K:treble] G>A | B,,<B,, B,,>B,, B,,2[K:treble] F>G | %12
 B,,<B,, B,,>B,, B,,<B,,[K:treble] A>A | [E,B,]<[E,E] [E,E]>[E,E] [E,E]2[K:treble] G>A | %14
 E,<E, E,>E, E,<E,[K:treble] G>G | [A,CA]<[A,EA] [A,EA]>[A,EA] [A,EA]2 [A,EA]>[A,EA] | %16
 [E,E]<[E,E] [E,E]>[E,E] [E,E]<[E,B,] [B,,A,]>[B,,B,] | %17
[M:7/8] [E,G,]<[E,G,][E,A,]>[E,A,] [E,G,]3 |] %18
V:3
 x8 | x8 | x8 | x8 | x8 | x8 | x8 | x8 |[M:3/4] x6 |[M:1/4] x2 |[M:4/4] E<E E>E B,<B, B>c | x8 | %12
 D<D D>D B,<B, d>c | x8 | .E2 z2 [EG]2 z2 | x8 | x8 |[M:7/8] z/ B,3/2C>C B,3 |] %18

